brandFactory_export/2.Regular/Arbol _2Regular.svg

<?xml version="1.0" encoding="UTF-8"?>
<svg width="24px" height="24px" viewBox="0 0 24 24" version="1.1" xmlns="http://www.w3.org/2000/svg" xmlns:xlink="http://www.w3.org/1999/xlink">
    <title>2.Regular/Arbol _2Regular</title>
    <g id="Symbols" stroke="none" stroke-width="1" fill="none" fill-rule="evenodd">
        <g id="2.Regular/Arbol-_2Regular" fill="#5CB615" fill-rule="nonzero">
            <path d="M18.3092437,10.6184874 C18.8840336,10.9680672 19.1663866,11.5596639 19.1663866,12.4302521 C19.1663866,13.5630252 18.6857143,14.2420168 17.7008403,14.5042017 C17.3747899,14.5915966 17.1563025,14.9579832 17.1563025,15.2773109 C17.1563025,18.3596639 14.6487395,18.8571429 13.3344538,18.9109244 L13.3344538,13.7344538 C13.3411765,13.7243697 13.3546218,13.7210084 13.3613445,13.7109244 L16.0403361,10.2588235 C16.2756303,9.95630252 16.2218487,9.51932773 15.9193277,9.28067227 C15.9058824,9.27058824 15.8957983,9.2605042 15.8823529,9.25378151 C15.5462185,9.01848739 15.0823529,9.08571429 14.8268908,9.40504202 L13.3378151,11.3277311 L13.3378151,9.14621849 C13.3378151,8.74957983 13.0016807,8.42689076 12.5815126,8.42689076 C12.1647059,8.42689076 11.8252101,8.74957983 11.8252101,9.14621849 L11.8252101,15.2806723 L9.90252101,13.4453782 C9.6,13.1663866 9.13613445,13.1630252 8.83361345,13.4420168 C8.5512605,13.7042017 8.53445378,14.1445378 8.79663866,14.4268908 C8.80672269,14.4369748 8.81680672,14.4504202 8.8302521,14.4605042 L11.8252101,17.3243697 L11.8252101,18.7697479 C10.8134454,18.5478992 9.58991597,17.9831933 9.18319328,16.5378151 C9.08907563,16.2252101 8.8,16.010084 8.47394958,16.0067227 C7.36806723,15.9798319 5.51260504,15.5731092 5.51260504,13.1563025 C5.51260504,12.1243697 5.83193277,11.3848739 6.48403361,10.9008403 C6.67563025,10.7630252 6.78655462,10.5378151 6.77647059,10.2991597 C6.76302521,10.0605042 6.63193277,9.8487395 6.42689076,9.72773109 C5.85210084,9.38151261 5.57310924,8.78991597 5.57310924,7.91932773 C5.57310924,6.77983193 6.04033613,6.1210084 7.04537815,5.84201681 C7.36806723,5.75462185 7.57983193,5.38823529 7.57983193,5.06890756 C7.57983193,1.78823529 10.4201681,1.43529412 11.6436975,1.43529412 C12.4033613,1.43529412 14.9378151,1.60672269 15.5596639,3.81176471 C15.6537815,4.12436975 15.9394958,4.3394958 16.2621849,4.34285714 C17.3714286,4.37647059 19.2268908,4.79327731 19.2268908,7.2 C19.2268908,8.23193277 18.9109244,8.96470588 18.2588235,9.4487395 C18.0672269,9.58655462 17.9563025,9.81176471 17.9663866,10.0504202 C17.9764706,10.2823529 18.107563,10.497479 18.3092437,10.6184874 M20.7327731,7.2 C20.7327731,4.39327731 18.810084,3.18319328 16.8403361,2.94789916 C15.9563025,0.786554622 13.6235294,0 11.6403361,0 C9.18991597,0 6.3394958,1.21008403 6.09411765,4.6487395 C4.77647059,5.20336134 4.0605042,6.34621849 4.0605042,7.92268908 C4.0605042,9.08571429 4.44705882,9.86218487 4.91428571,10.3731092 C4.42016807,10.9680672 4,11.8554622 4,13.1596639 C4,15.9831933 5.92268908,17.1865546 7.89243697,17.4084034 C8.59495798,19.1159664 10.2016807,19.9563025 11.8218487,20.2352941 L11.8218487,22.9042017 C11.8218487,23.3008403 12.1613445,23.6235294 12.5781513,23.6235294 C12.994958,23.6235294 13.3344538,23.3008403 13.3344538,22.9042017 L13.3344538,20.3428571 C15.7310924,20.2655462 18.4033613,19.0285714 18.6420168,15.7042017 C19.5663866,15.3142857 20.6756303,14.4302521 20.6756303,12.4268908 C20.6756303,11.2672269 20.292437,10.4941176 19.8218487,9.97983193 C20.4268908,9.26386555 20.7327731,8.33277311 20.7327731,7.2" id="Arbol-_2Regular"></path>
        </g>
    </g>
</svg>

<svg width="24" height="24" viewBox="0 0 24 24" xmlns="http://www.w3.org/2000/svg"><path d="M18.31 10.618c.574.35.856.942.856 1.812 0 1.133-.48 1.812-1.465 2.074-.326.088-.545.454-.545.773 0 3.083-2.507 3.58-3.822 3.634v-5.177c.007-.01.02-.013.027-.023l2.68-3.452a.7.7 0 00-.122-.978c-.013-.01-.023-.02-.037-.027a.781.781 0 00-1.055.151l-1.49 1.923V9.146c0-.396-.335-.72-.755-.72-.417 0-.757.324-.757.72v6.135l-1.922-1.836a.787.787 0 00-1.07-.003.696.696 0 00-.036.985c.01.01.02.023.033.034l2.995 2.863v1.446c-1.012-.222-2.235-.787-2.642-2.232a.75.75 0 00-.71-.531c-1.105-.027-2.96-.434-2.96-2.85 0-1.033.319-1.772.971-2.256a.704.704 0 00.292-.602.707.707 0 00-.35-.571c-.574-.346-.853-.938-.853-1.809 0-1.14.467-1.798 1.472-2.077.323-.087.535-.454.535-.773 0-3.28 2.84-3.634 4.064-3.634.76 0 3.294.172 3.916 2.377.094.312.38.527.702.53 1.11.034 2.965.451 2.965 2.858 0 1.032-.316 1.765-.968 2.249a.704.704 0 00-.293.601c.01.232.142.447.343.568M20.733 7.2c0-2.807-1.923-4.017-3.893-4.252C15.956.787 13.624 0 11.64 0c-2.45 0-5.3 1.21-5.546 4.649-1.318.554-2.033 1.697-2.033 3.274 0 1.163.386 1.94.853 2.45C4.42 10.968 4 11.855 4 13.16c0 2.823 1.923 4.027 3.892 4.248.703 1.708 2.31 2.548 3.93 2.827v2.67c0 .396.34.719.756.719.417 0 .756-.323.756-.72v-2.561c2.397-.077 5.07-1.314 5.308-4.639.924-.39 2.034-1.274 2.034-3.277 0-1.16-.384-1.933-.854-2.447.605-.716.91-1.647.91-2.78" fill="#5CB615" fill-rule="nonzero"/></svg>
